X:1
T:La Veuze
C:Trad. pays Nantais, fichier abc : Bernard Loffet
L:1/8
Q:510
M:2/2
K:C
 [g2C,,2][fG,]e [d2G,,2][e2G,2] | [f2G,,2][e2G,2] [d2G,,2][d2G,2] | [d2G,,2][d2G,2] [d2G,,2][e2G,2] | \
 [d2G,,2][cG,]d [e2C,,2][c2C,2] | [g2C,,2][fG,]e [d2G,,2][e2G,2] | [f2G,,2][e2G,2] [d2G,,2][dG,]d | \
 [d2G,,2][c2G,2] [d2G,,2]G,2 | [g2G,,2]G,2 [c2C,,2]G2 | \
M:1/2
 A2B2 | \
M:2/2
 [c2C,,2]C,2 d2[e2C,2] | [c2C,,2][G2C,2] A2[B2C,2] | [c2A,,2]A,2 d2[e2A,2] | [c2A,,2][G2E,2] A2[B2A,2] | \
 [c2F,,2]F,2 d2[e2F,2] | [f2G,,2]G,2 e2G,d | [e2C,,2][c2C,2] d2[e2C,2] | [d2G,,2]G,2 [d2G,,2]G2 | \
M:1/2
 A2B2 | \
M:2/2
 [c2C,,2]C,2 d2[e2C,2] | [c2C,,2][G2C,2] A2[B2C,2] | [c2A,,2]A,2 d2[e2A,2] | [c2A,,2][G2E,2] A2[B2A,2] | \
 [c2F,,2]F,2 d2[e2F,2] | [f2G,,2]G,2 e2G,d | [e2C,,2][c2C,2] d2[B2G,2] | [c2C,,2]C,2 [c2C,,2]z2 | \
W:Created with TablEdit http://www.tabledit.com/ by Bernard Loffet
